X:745
T:The mucking o' Geordie's byre
R:Jig or march
O:Scotland
B:NE Fiddler's 22
B:Musical Museum 96
B:Jerry Holland Collection 59
S:NE Fiddler's 22
Z:Transcription, minor arr. , chords:Mike Long
M:6/8
L:1/8
K:D
"D"ABA AFA|d2e f2a|"G"g2e "D"f2d|"A"e2d "G"Bcd|\
"D"ABA AFA|d2e f2g|"D"afd "A"efe|[1 "D"d3 "(G)"dcB:|[2 "D"d3 def|]
|:"G"g2g gab|"D"f2f fga|"A"efe ede|"D"fed "G"BdB|\
"D"ABA AFA|d2e f2g|"D"afd "A"efe|[1 "D"d3 def:|[2 "D"d3 "(G)"dcB|]
